X:1
T:Sail On
T:Sail On
T:Rollin Chauncey Ward
T:Ida A. Hushower, 1900
T:Public Domain Courtesy of the Cyber Hymnal™
C:Rollin Chauncey Ward
Z:Public Domain
Z:Courtesy of the Cyber Hymnal™
%%score ( 1 2 ) ( 3 4 )
L:1/8
Q:1/4=105
M:4/4
K:Ab
V:1 treble 
V:2 treble 
V:3 bass 
V:4 bass 
V:1
 E2 | A2 A2 C2 DE | F2 F2 B,2 (CD) | E3 [Ed] [Ec]2 [EB]2 | [Ec]6 E2 | A2 A2 C2 DE | %6
w: 1.~A-|way, a- way on the|sea of life, My *|lit- tle boat doth|glide; I|soon shall land on the|
w: 2.~I|sing my song as the|days go by; From *|storms I have no|fear; I|safe- ly glide on the|
w: 3.~Per-|haps some soul may be|sail- ing near, So *|wea- ry from life’s|race; I’ll|sing my song, it may|
 F2 F2 [Fd]2 (cB) | [EA]3 [Ac] [Ac]2 [EB]2 | [EA]6 ||"^Refrain" (cd) | e6 (fe) | c6 (cd) | %12
w: o- ther shore, Be- *|yond the swell- ing|tide.|Sail *|on, sail *|on, For *|
w: roll- ing waves, For *|Christ my cap- tain’s|near.||||
w: help him bear The *|con- flicts he must|face.||||
 [Ae]3 [Ae] [Ed]2 [Ec]2 | B6 E2 | A2 A2 C2 DE | F2 F2 [Fd]2 (cB) | [EA]3 [Ac] [Ac]2 [EB]2 | %17
w: soon this life is|past; Tho’|tem- pests beat, we will|still sail on, And *|all be home at|
w: |||||
w: |||||
 [EA]6 |] %18
w: last.|
w: |
w: |
V:2
 E2 | A2 A2 C2 DE | F2 F2 B,2 x2 | E3 x5 | x6 E2 | A2 A2 C2 DE | F2 F2 F2 x2 | x8 | x6 || A2 | %10
 (A2 A2 A2) A2 | (A2 A2 E2) E2 | x8 | (E2 E2 E2) E2 | A2 A2 C2 DE | F2 F2 F2 x2 | x8 | x6 |] %18
V:3
 E,2 | A,2 A,2 C,2 D,E, | F,2 F,2 B,,2 (C,D,) | E,3 [E,B,] [E,A,]2 [E,G,]2 | [A,,A,]6 E,2 | %5
w: ~|~ ~ ~ ~ ~|~ ~ ~ ~ *|~ ~ ~ ~|~ ~|
 A,2 A,2 C,2 D,E, | F,2 F,2 [B,,B,]2 ([C,=A,][D,B,]) | [E,C]3 [E,E] [E,E]2 [E,D]2 | [A,,C]6 || %9
w: ~ ~ ~ ~ ~|~ ~ ~ ~ *|~ ~ ~ ~|~|
 (A,B,) | C6 (DC) | A,6 (A,B,) | [A,C]3 [A,C] [G,B,]2 A,2 | %13
w: ~ *|~ sail *|on, ~ *|~ sail on, *|
 ([E,G,]2 [E,G,]2 [E,G,][D,B,]) ([C,A,][B,,G,]) | [A,,A,]2 A,2 C,2 D,E, | %15
w: ||
 F,2 F,2 [B,,B,]2 ([C,=A,][D,B,]) | [E,C]3 [E,E] [E,E]2 [E,D]2 | [A,,C]6 |] %18
w: |||
V:4
 E,2 | A,2 A,2 C,2 D,E, | F,2 F,2 B,,2 x2 | E,3 x5 | x6 E,2 | A,2 A,2 C,2 D,E, | F,2 F,2 x4 | x8 | %8
 x6 || A,2 | A,2 E,2 A,,2 A,2 | A,2 E,2 A,,2 A,2 | x6 A,2 | x8 | x2 A,2 C,2 D,E, | F,2 F,2 x4 | %16
 x8 | x6 |] %18

